packages/core/assets/Icons/fit_screen_outlined.svg

<svg viewBox="0 0 20 20" fill="none" xmlns="http://www.w3.org/2000/svg">
<path d="M16.6666 6.66671V5.00004H15C14.7638 5.00004 14.5659 4.92018 14.4062 4.76046C14.2465 4.60074 14.1666 4.40282 14.1666 4.16671C14.1666 3.9306 14.2465 3.73268 14.4062 3.57296C14.5659 3.41324 14.7638 3.33337 15 3.33337H16.6666C17.125 3.33337 17.5173 3.49657 17.8437 3.82296C18.1701 4.14935 18.3333 4.54171 18.3333 5.00004V6.66671C18.3333 6.90282 18.2534 7.10073 18.0937 7.26046C17.934 7.42018 17.7361 7.50004 17.5 7.50004C17.2638 7.50004 17.0659 7.42018 16.9062 7.26046C16.7465 7.10073 16.6666 6.90282 16.6666 6.66671ZM1.66663 6.66671V5.00004C1.66663 4.54171 1.82982 4.14935 2.15621 3.82296C2.4826 3.49657 2.87496 3.33337 3.33329 3.33337H4.99996C5.23607 3.33337 5.43399 3.41324 5.59371 3.57296C5.75343 3.73268 5.83329 3.9306 5.83329 4.16671C5.83329 4.40282 5.75343 4.60074 5.59371 4.76046C5.43399 4.92018 5.23607 5.00004 4.99996 5.00004H3.33329V6.66671C3.33329 6.90282 3.25343 7.10073 3.09371 7.26046C2.93399 7.42018 2.73607 7.50004 2.49996 7.50004C2.26385 7.50004 2.06593 7.42018 1.90621 7.26046C1.74649 7.10073 1.66663 6.90282 1.66663 6.66671ZM16.6666 16.6667H15C14.7638 16.6667 14.5659 16.5868 14.4062 16.4271C14.2465 16.2674 14.1666 16.0695 14.1666 15.8334C14.1666 15.5973 14.2465 15.3993 14.4062 15.2396C14.5659 15.0799 14.7638 15 15 15H16.6666V13.3334C16.6666 13.0973 16.7465 12.8993 16.9062 12.7396C17.0659 12.5799 17.2638 12.5 17.5 12.5C17.7361 12.5 17.934 12.5799 18.0937 12.7396C18.2534 12.8993 18.3333 13.0973 18.3333 13.3334V15C18.3333 15.4584 18.1701 15.8507 17.8437 16.1771C17.5173 16.5035 17.125 16.6667 16.6666 16.6667ZM3.33329 16.6667C2.87496 16.6667 2.4826 16.5035 2.15621 16.1771C1.82982 15.8507 1.66663 15.4584 1.66663 15V13.3334C1.66663 13.0973 1.74649 12.8993 1.90621 12.7396C2.06593 12.5799 2.26385 12.5 2.49996 12.5C2.73607 12.5 2.93399 12.5799 3.09371 12.7396C3.25343 12.8993 3.33329 13.0973 3.33329 13.3334V15H4.99996C5.23607 15 5.43399 15.0799 5.59371 15.2396C5.75343 15.3993 5.83329 15.5973 5.83329 15.8334C5.83329 16.0695 5.75343 16.2674 5.59371 16.4271C5.43399 16.5868 5.23607 16.6667 4.99996 16.6667H3.33329ZM4.99996 11.6667V8.33337C4.99996 7.87504 5.16315 7.48268 5.48954 7.15629C5.81593 6.8299 6.20829 6.66671 6.66663 6.66671H13.3333C13.7916 6.66671 14.184 6.8299 14.5104 7.15629C14.8368 7.48268 15 7.87504 15 8.33337V11.6667C15 12.125 14.8368 12.5174 14.5104 12.8438C14.184 13.1702 13.7916 13.3334 13.3333 13.3334H6.66663C6.20829 13.3334 5.81593 13.1702 5.48954 12.8438C5.16315 12.5174 4.99996 12.125 4.99996 11.6667ZM6.66663 11.6667H13.3333V8.33337H6.66663V11.6667Z" fill="currentColor"/>
</svg>

<svg xmlns="http://www.w3.org/2000/svg" width="20" height="20" fill="none" viewBox="0 0 20 20">
  <path fill="#201F1F" d="M16.667 6.667V5H15a.806.806 0 0 1-.594-.24.806.806 0 0 1-.24-.593c0-.236.08-.434.24-.594.16-.16.358-.24.594-.24h1.667c.458 0 .85.164 1.177.49.326.326.49.719.49 1.177v1.667c0 .236-.08.434-.24.593a.806.806 0 0 1-.594.24.806.806 0 0 1-.594-.24.806.806 0 0 1-.24-.593Zm-15 0V5c0-.458.163-.85.49-1.177.326-.326.718-.49 1.176-.49H5c.236 0 .434.08.594.24.16.16.24.358.24.594s-.08.434-.24.593A.806.806 0 0 1 5 5H3.333v1.667c0 .236-.08.434-.24.593a.806.806 0 0 1-.593.24.806.806 0 0 1-.594-.24.806.806 0 0 1-.24-.593Zm15 10H15a.806.806 0 0 1-.594-.24.806.806 0 0 1-.24-.594c0-.236.08-.434.24-.593.16-.16.358-.24.594-.24h1.667v-1.667c0-.236.08-.434.24-.593.159-.16.357-.24.593-.24s.434.08.594.24c.16.16.24.357.24.593V15c0 .458-.164.85-.49 1.177-.327.326-.719.49-1.177.49Zm-13.334 0c-.458 0-.85-.164-1.177-.49A1.605 1.605 0 0 1 1.666 15v-1.667c0-.236.08-.434.24-.593.16-.16.358-.24.594-.24s.434.08.594.24c.16.16.24.357.24.593V15H5c.236 0 .434.08.594.24.16.16.24.357.24.593 0 .237-.08.434-.24.594a.806.806 0 0 1-.594.24H3.333Zm1.667-5V8.333c0-.458.163-.85.49-1.177.326-.326.718-.49 1.177-.49h6.666c.459 0 .851.164 1.177.49.327.327.49.719.49 1.177v3.334c0 .458-.163.85-.49 1.177-.326.326-.718.49-1.177.49H6.667c-.459 0-.851-.164-1.177-.49A1.605 1.605 0 0 1 5 11.667Zm1.667 0h6.666V8.333H6.667v3.334Z"/>
</svg>
